!!!!SEGMENT: pl-kk--kk-i-10--018-005_leszczynski-wladyslaw--missa-per-octavas-agnus-dei.krn
!!!id: 16xx:1214
!!!COM: Leszczyński, Władysław
!!!COM-rism: pe30025416
!!!CDT: 1616-1680
!!!CNT: Polish
!!!OTL: Missa per octavas – Agnus Dei
!!!PDT:
!!!SMS-siglum: PL-Kk
!!!SMS-shelfmark: Kk.I.10
!!!NIFC-rismID: 1001153984
!!!URL-scan: http://repozytorium.nifc.pl/skany/pl-kk-nut--i-10
!!!ONB-nifc: UWAGA: Części Mszy: 1. Kyrie, 2. Et in terra, 3. Sanctus, 4. Agnus Dei. S (skan 0030-0033), T (0078-0082), B (0129-0132).
!!!SMS-variant:
!!!SMS-altvar:
**kern	**text	**kern	**text	**kern	**text
*part3	*part3	*part2	*part2	*part1	*part1
*staff3	*staff3	*staff2	*staff2	*staff1	*staff1
*I"[Basso]	*	*I"[Tenore]	*	*I"[Canto]	*
*I'B	*	*I'T	*	*I'S	*
*clefF4	*	*clefC4	*	*clefC1	*
*k[]	*	*k[]	*	*k[]	*
*M2/1	*	*M2/1	*	*M2/1	*
*met(C)	*	*met(C)	*	*met(C)	*
*MM240	*	*MM240	*	*MM240	*
=1-	=1-	=1-	=1-	=1-	=1-
*all\right	*	*all\right	*	*all\right	*
2.C/	A-	1c\	A-	0r	.
4D/	.	.	.	.	.
*2\right	*	*	*	*	*
2E\	-gnus	1c\	-gnus	.	.
2C/	.	.	.	.	.
=2-	=2-	=2-	=2-	=2-	=2-
*col	*	*	*	*	*
*lig	*	*	*	*	*
1G\	De-	1B\	De-	1dd\	A-
1D\	.	1A\	-i	1dd\	-gnus
*Xlig	*	*	*	*	*
*Xcol	*	*	*	*	*
=3-	=3-	=3-	=3-	=3-	=3-
*	*	*col	*	*	*
*	*	*lig	*	*2\right	*
1GG/	-i	1B\	qui	2b\	De-
.	.	.	.	1g\	-i
1G\	qui	1d\	.	.	.
.	.	.	.	2b\	qui
*	*	*Xlig	*	*	*
=4-	=4-	=4-	=4-	=4-	=4-
*	*	*lig	*	*	*
1C/	tol-	1c\	tol-	1ee\	tol-
2D\	.	1B\	.	1dd\	-lis
1E\	.	.	.	.	.
*	*	*Xlig	*	*	*
=5-	=5-	=5-	=5-	=5-	=5-
.	.	0A\	.	1r	.
2C/	.	.	.	.	.
1D\	.	.	.	2r	.
.	.	.	.	2dd\	pec-
=6-	=6-	=6-	=6-	=6-	=6-
1GG/	-lis	0G/	-lis	2b\	-ca-
.	.	.	.	2g/	-ta
*	*	*	*	*	*ij
2r	.	.	.	2.g/	pec-
2G\	pec-	.	.	.	.
.	.	.	.	4a\	-ca-
*	*	*Xcol	*	*	*
=7-	=7-	=7-	=7-	=7-	=7-
2E\	-ca-	0r	.	4b\	.
.	.	.	.	4cc\	.
2BB/	-ta	.	.	2.dd\	.
2.C/	mun-	.	.	.	.
.	.	.	.	4cc\	-ta
*	*	*	*	*	*Xij
.	.	.	.	1cc\	mun-
4D/	.	.	.	.	.
!LO:LB:g=original	!	!	!	!	!
=8-	=8-	=8-	=8-	=8-	=8-
4E\	.	2r	.	.	.
4F\	.	.	.	.	.
*	*	*2\right	*	*	*
2G\	.	2d\	pec-	2b\	.
1C/	-di	2c\	-ca-	1cc\	-di
.	.	2G/	-ta	.	.
=9-	=9-	=9-	=9-	=9-	=9-
0r	.	2c\	mun-	2r	.
.	.	4C/	.	2.g\	mun-
.	.	4D/	.	.	.
.	.	4E/	.	.	.
.	.	4F/	.	4a\	.
.	.	2G/	.	4b\	.
.	.	.	.	4cc\	.
!	!	!	!	!LO:LB:g=original	!
=10-	=10-	=10-	=10-	=10-	=10-
1r	.	1D/	.	1dd\	.
2r	.	1G/	-di	1b\	-di
1G\	Mi-	.	.	.	.
!	!	!LO:PB:g=original	!	!	!
=11-	=11-	=11-	=11-	=11-	=11-
.	.	2r	.	00r	.
2E\	-ſe-	2c\	mi-	.	.
2F\	-re-	2A\	-ſe-	.	.
2.G\	.	2.B\	-re-	.	.
=12-	=12-	=12-	=12-	=12-	=12-
4F\	.	4A/	.	.	.
4E\	.	4G/	.	.	.
!	!	!LO:TX:b:t=P:problem:# below	!	!	!
4D/	.	4F#X/	.	.	.
1.C/	.	1G/	.	.	.
=13-	=13-	=13-	=13-	=13-	=13-
.	.	2A\	-re	0r	.
2BB/	-re	2B\	no-	.	.
*col	*	*	*	*	*
*lig	*	*	*	*	*
1C/	no-	1e\	.	.	.
=14-	=14-	=14-	=14-	=14-	=14-
1D\	.	1A\	-bis	2r	.
.	.	.	.	1dd\	Mi-
*Xlig	*	*	*	*	*
*Xcol	*	*	*	*	*
1GG/	-bis	2r	.	.	.
.	.	1G/	Do-	2b\	-ſe-
=15-	=15-	=15-	=15-	=15-	=15-
2r	.	.	.	2.cc\	-re-
1C/	Mi-	1E/	-na	.	.
.	.	.	.	4dd\	.
.	.	.	.	4ee\	.
.	.	.	.	4dd\	.
2BB/	-ſe-	2G/	no-	4cc\	.
.	.	.	.	4b\	.
=16-	=16-	=16-	=16-	=16-	=16-
1AA/	-re-	2.A\	.	2.cc\	.
.	.	4B\	.	4dd\	.
1EE/	-re	2.c\	.	2ee\	.
.	.	.	.	4dd\	.
.	.	4d\	.	4cc\	.
=17-	=17-	=17-	=17-	=17-	=17-
*col	*	*	*	*	*
0GG/	No-	2e\	-bis	2b\	-re
.	.	4d\	.	1cc\	No-
.	.	4c\	.	.	.
.	.	1d\	pa-	.	.
.	.	.	.	2b\	.
=18-	=18-	=18-	=18-	=18-	=18-
!	!	!	!	!LO:TX:t=P:problem:na końcu każdego głosu 3 kropki i powtórzona brevis	!
0C/	-bis	0c\	-cem	0cc\	-bis
*Xcol	*	*	*	*	*
=19-	=19-	=19-	=19-	=19-	=19-
*	*ij	*	*ij	*	*ij
FF/	No-	c\	pa-	a\	No-
FF/	.	c\	.	a\	.
FF/	.	c\	.	a\	.
0C/	-bis	0c\	-cem	0g\	-bis
*	*Xij	*	*Xij	*	*Xij
==	==	==	==	==	==
*-	*-	*-	*-	*-	*-
!!!system-decoration: [s1,s2,s3]
!!!EED: Andrzej Borzym
!!!EST: 2021-07-08
!!!ENC: Tomasz Grochalski
!!!END: 2021-06-27
